build/images/icons/vk.svg

<svg width="30" height="30" viewBox="0 0 30 30" fill="none" xmlns="http://www.w3.org/2000/svg">
<path d="M24.8938 16.285C24.4088 15.6725 24.5475 15.4 24.8938 14.8525C24.9 14.8462 28.9037 9.31375 29.3162 7.4375L29.3188 7.43625C29.5238 6.7525 29.3188 6.25 28.3275 6.25H25.0475C24.2125 6.25 23.8275 6.68125 23.6213 7.16375C23.6213 7.16375 21.9513 11.1613 19.5887 13.7525C18.8263 14.5012 18.4738 14.7413 18.0575 14.7413C17.8525 14.7413 17.5338 14.5013 17.5338 13.8175V7.43625C17.5338 6.61625 17.3 6.25 16.6087 6.25H11.4513C10.9275 6.25 10.6163 6.6325 10.6163 6.98875C10.6163 7.76625 11.7975 7.945 11.92 10.1325V14.8787C11.92 15.9187 11.7312 16.11 11.3125 16.11C10.1975 16.11 7.49125 12.0962 5.8875 7.5025C5.56375 6.61125 5.2475 6.25125 4.40625 6.25125H1.125C0.18875 6.25125 0 6.6825 0 7.165C0 8.0175 1.115 12.2562 5.185 17.8562C7.8975 21.6788 11.7175 23.75 15.1925 23.75C17.2812 23.75 17.5363 23.29 17.5363 22.4988C17.5363 18.8463 17.3475 18.5012 18.3937 18.5012C18.8787 18.5012 19.7137 18.7413 21.6637 20.585C23.8925 22.7712 24.2588 23.75 25.5063 23.75H28.7862C29.7212 23.75 30.195 23.29 29.9225 22.3825C29.2987 20.4738 25.0838 16.5475 24.8938 16.285Z" fill="#2F3035"/>
</svg>

<svg width="30" height="30" fill="none" xmlns="http://www.w3.org/2000/svg"><path d="M24.894 16.285c-.485-.613-.346-.885 0-1.433.006-.006 4.01-5.538 4.422-7.415h.003c.205-.684 0-1.187-.991-1.187h-3.28c-.835 0-1.22.431-1.427.914 0 0-1.67 3.997-4.032 6.588-.763.75-1.115.99-1.531.99-.206 0-.524-.24-.524-.925v-6.38c0-.82-.234-1.187-.925-1.187H11.45c-.524 0-.835.383-.835.739 0 .777 1.181.956 1.304 3.144v4.746c0 1.04-.189 1.231-.607 1.231-1.116 0-3.822-4.014-5.426-8.607-.323-.892-.64-1.252-1.48-1.252H1.124C.189 6.251 0 6.682 0 7.165c0 .853 1.115 5.091 5.185 10.691 2.713 3.823 6.532 5.894 10.008 5.894 2.088 0 2.343-.46 2.343-1.251 0-3.653-.189-3.998.858-3.998.485 0 1.32.24 3.27 2.084 2.228 2.186 2.595 3.165 3.842 3.165h3.28c.935 0 1.409-.46 1.136-1.367-.623-1.91-4.838-5.835-5.028-6.098z" fill="#2F3035"/></svg>
